!!!OTL: Funu fangshao
!!!ARE: Asia, China,ÿLiaoning Gaixian
!! III, 233
!!!SCT: C1740
!!!YEM: Copyright 1995, estate of Helmut Schaffrath.
**kern
*ICvox
*Ivox
*M2/4
*k[b-]
*F:
{8dd
8cc
8dd
8gg
=1
8ff
8dd
4cc
=2
8dd
8dd
8ff
8a
=3
4g
4g}
=4
{8.a
16cc
8dd
8dd
=5
8cc
8a
4g
=6
8a
8a
8cc
8e
=7
2d}
==
!!!AGN: Xiaodiao, Xiubaxian diao
!!!AMT: simple duple
!!!AIN: vox
!!!EED: Helmut Schaffrath
!!!EEV: 1.0
*-
